src/assets/images/twitter.svg

<?xml version="1.0" encoding="UTF-8" standalone="no"?>
<svg width="250px" height="204px" viewBox="0 0 250 204" version="1.1" xmlns="http://www.w3.org/2000/svg" xmlns:xlink="http://www.w3.org/1999/xlink">
    <!-- Generator: Sketch 42 (36781) - http://www.bohemiancoding.com/sketch -->
    <title>Shape</title>
    <desc>Created with Sketch.</desc>
    <defs></defs>
    <g id="Page-1" stroke="none" stroke-width="1" fill="none" fill-rule="evenodd">
        <g id="twitter" transform="translate(-75.000000, -98.000000)" fill-rule="nonzero" fill="#000000">
            <path d="M153.62,301.59 C247.96,301.59 299.56,223.43 299.56,155.65 C299.56,153.43 299.56,151.22 299.41,149.02 C309.448314,141.759109 318.113555,132.768794 325,122.47 C315.638791,126.618018 305.708293,129.338286 295.54,130.54 C306.24744,124.129821 314.261235,114.04772 318.09,102.17 C308.021575,108.144553 297.006461,112.35512 285.52,114.62 C269.620828,97.7139428 244.357194,93.5761258 223.895493,104.526799 C203.433792,115.477473 192.86275,138.793257 198.11,161.4 C156.868957,159.332495 118.444758,139.853233 92.4,107.81 C78.7862276,131.246447 85.7398788,161.228595 108.28,176.28 C100.117412,176.038075 92.1327937,173.836132 85,169.86 L85,170.51 C85.0066813,194.92593 102.217515,215.955352 126.15,220.79 C118.598696,222.8494 110.675806,223.150443 102.99,221.67 C109.709479,242.564228 128.965746,256.877839 150.91,257.29 C132.74735,271.564319 110.310595,279.313277 87.21,279.29 C83.1290357,279.282165 79.0520407,279.035075 75,278.55 C98.4563595,293.602766 125.749134,301.587169 153.62,301.55" id="Shape"></path>
        </g>
    </g>
</svg>

<svg id="Logo_FIXED" data-name="Logo — FIXED" xmlns="http://www.w3.org/2000/svg" viewBox="0 0 400 400"><defs><style>.cls-1{fill:none;}.cls-2{fill:#000000;}</style></defs><title>Twitter_Logo_Blue</title><rect class="cls-1" width="400" height="400"/><path class="cls-2" d="M153.62,301.59c94.34,0,145.94-78.16,145.94-145.94,0-2.22,0-4.43-.15-6.63A104.36,104.36,0,0,0,325,122.47a102.38,102.38,0,0,1-29.46,8.07,51.47,51.47,0,0,0,22.55-28.37,102.79,102.79,0,0,1-32.57,12.45,51.34,51.34,0,0,0-87.41,46.78A145.62,145.62,0,0,1,92.4,107.81a51.33,51.33,0,0,0,15.88,68.47A50.91,50.91,0,0,1,85,169.86c0,.21,0,.43,0,.65a51.31,51.31,0,0,0,41.15,50.28,51.21,51.21,0,0,1-23.16.88,51.35,51.35,0,0,0,47.92,35.62,102.92,102.92,0,0,1-63.7,22A104.41,104.41,0,0,1,75,278.55a145.21,145.21,0,0,0,78.62,23"/></svg>
